resources/images/param_chamber_temp.svg

<svg xmlns="http://www.w3.org/2000/svg" width="18" height="18" viewBox="0 0 18 18"><rect x="0.5" y="0.5" width="16" height="16" rx="1" style="fill:none;stroke:#009688;stroke-linecap:round;stroke-linejoin:round"/><line x1="2.5" y1="14.5" x2="14.5" y2="14.5" style="fill:none;stroke:#949494;stroke-linecap:square;stroke-linejoin:round"/><path d="M12.5,11.5l.4-.4a.853.853,0,0,0,0-1.208L12.1,9.1a.853.853,0,0,1,0-1.208L12.9,7.1a.853.853,0,0,0,0-1.208L12.1,5.1a.853.853,0,0,1,0-1.208l.4-.4" style="fill:none;stroke:#009688;stroke-linecap:square;stroke-linejoin:round"/><path d="M8.5,11.5l.4-.4A.853.853,0,0,0,8.9,9.9L8.1,9.1A.853.853,0,0,1,8.1,7.9L8.9,7.1A.853.853,0,0,0,8.9,5.9L8.1,5.1A.853.853,0,0,1,8.1,3.9l.4-.4" style="fill:none;stroke:#009688;stroke-linecap:square;stroke-linejoin:round"/><path d="M4.5,11.5l.4-.4A.853.853,0,0,0,4.9,9.9L4.1,9.1A.853.853,0,0,1,4.1,7.9L4.9,7.1A.853.853,0,0,0,4.9,5.9L4.1,5.1A.853.853,0,0,1,4.1,3.9l.4-.4" style="fill:none;stroke:#009688;stroke-linecap:square;stroke-linejoin:round"/></svg>

<svg xmlns="http://www.w3.org/2000/svg" viewBox="0 0 18 18"><rect x="0.5" y="0.5" width="16" height="16" rx="1" style="fill:none;stroke:#009688;stroke-linecap:round;stroke-linejoin:round"/><line x1="2.5" y1="14.5" x2="14.5" y2="14.5" style="fill:none;stroke:#949494;stroke-linecap:square;stroke-linejoin:round"/><path d="M12.5,11.5l.4-.4a.85.85,0,0,0,0-1.2l-.8-.8a.85.85,0,0,1,0-1.2l.8-.8a.85.85,0,0,0,0-1.2l-.8-.8a.85.85,0,0,1,0-1.2l.4-.4" style="fill:none;stroke:#009688;stroke-linecap:square;stroke-linejoin:round"/><path d="M8.5,11.5l.4-.4a.85.85,0,0,0,0-1.2l-.8-.8a.85.85,0,0,1,0-1.2l.8-.8a.85.85,0,0,0,0-1.2l-.8-.8a.85.85,0,0,1,0-1.2l.4-.4" style="fill:none;stroke:#009688;stroke-linecap:square;stroke-linejoin:round"/><path d="M4.5,11.5l.4-.4a.85.85,0,0,0,0-1.2l-.8-.8a.85.85,0,0,1,0-1.2l.8-.8a.85.85,0,0,0,0-1.2l-.8-.8a.85.85,0,0,1,0-1.2l.4-.4" style="fill:none;stroke:#009688;stroke-linecap:square;stroke-linejoin:round"/></svg>
